;FLAVOR:Marlin
;TIME:2443
;Filament used: 2.44926m
;Layer height: 0.2
;MINX:77.549
;MINY:94.569
;MINZ:0.2
;MAXX:143.278
;MAXY:125.43
;MAXZ:76
;POSTPROCESSED
;LINEARADVANCEPROCESSED
;Generated with Cura_SteamEngine 4.12.1
;
;

;
;

M82 ;absolute extrusion mode
START_PRINT BED_TEMP=75 EXTRUDER_TEMP=225 MATERIAL_TYPE="PETG" MATERIAL_NAME="Eryone PETG" MATERIAL_BRAND="(Custom)"
G92 E0
G92 E0
G1 F2700 E-5
;LAYER_COUNT:378
M900 K1.030000 T0 ;added by LinearAdvanceSettingPlugin
;LAYER:0
M107
G1 F300 Z0.6
G0 F7500 X81.433 Y97.014 Z0.6
;TYPE:SKIRT
G1 F300 Z0.2
G1 F2700 E0
G1 F1500 X82.17 Y96.461 E0.03003
G1 X82.951 Y95.974 E0.06003
G1 X83.772 Y95.557 E0.09005
G1 X84.574 Y95.232 E0.11825
G1 X84.638 Y95.209 E0.12047
G1 X85.517 Y94.935 E0.15048
G1 X86.417 Y94.739 E0.1805
G1 X87.33 Y94.622 E0.21051
G1 X88.039 Y94.586 E0.23365
G1 X89.086 Y94.569 E0.26778
G1 X132.077 Y94.571 E1.66907
G1 X132.777 Y94.581 E1.69189
G1 X133.697 Y94.634 E1.72192
G1 X134.608 Y94.767 E1.75193
G1 X135.504 Y94.978 E1.78193
G1 X136.378 Y95.266 E1.81193
G1 X137.224 Y95.629 E1.84194
G1 X138.036 Y96.064 E1.87196
G1 X138.806 Y96.568 E1.90196
G1 X139.53 Y97.137 E1.93197
G1 X140.202 Y97.766 E1.96197
G1 X140.817 Y98.452 E1.99201
G1 X141.148 Y98.876 E2.00954
G1 X141.668 Y99.636 E2.03955
G1 X142.12 Y100.438 E2.06956
G1 X142.501 Y101.276 E2.09957
G1 X142.807 Y102.144 E2.12956
G1 X143.037 Y103.036 E2.15959
G1 X143.189 Y103.944 E2.1896
G1 X143.263 Y104.896 E2.22072
G1 X143.275 Y105.34 E2.2352
G1 X143.278 Y105.632 E2.24472
G1 X143.276 Y114.202 E2.52406
G1 X143.266 Y114.904 E2.54694
G1 X143.213 Y115.823 E2.57695
G1 X143.08 Y116.734 E2.60695
G1 X142.869 Y117.63 E2.63696
G1 X142.581 Y118.505 E2.66698
G1 X142.218 Y119.351 E2.69699
G1 X141.783 Y120.162 E2.72699
G1 X141.377 Y120.794 E2.75147
G1 X141.334 Y120.856 E2.75393
G1 X140.777 Y121.589 E2.78394
G1 X140.159 Y122.271 E2.81394
G1 X139.483 Y122.897 E2.84397
G1 X138.756 Y123.461 E2.87396
G1 X137.983 Y123.961 E2.90397
G1 X137.169 Y124.391 E2.93397
G1 X136.321 Y124.749 E2.96398
G1 X135.445 Y125.033 E2.99399
G1 X134.548 Y125.239 E3.02399
G1 X133.636 Y125.367 E3.05401
G1 X132.805 Y125.413 E3.08114
G1 X131.748 Y125.43 E3.11559
G1 X88.773 Y125.43 E4.51636
G1 X88.086 Y125.42 E4.53876
G1 X87.167 Y125.367 E4.56876
G1 X86.256 Y125.234 E4.59877
G1 X85.219 Y124.981 E4.63356
G1 X85.145 Y124.959 E4.63608
G1 X84.275 Y124.659 E4.66607
G1 X83.434 Y124.284 E4.69609
G1 X82.629 Y123.838 E4.72609
G1 X81.866 Y123.323 E4.75609
G1 X81.15 Y122.744 E4.7861
G1 X80.487 Y122.106 E4.8161
G1 X79.882 Y121.412 E4.84611
G1 X79.339 Y120.668 E4.87613
G1 X78.863 Y119.88 E4.90613
G1 X78.457 Y119.053 E4.93616
G1 X78.125 Y118.195 E4.96615
G1 X77.868 Y117.311 E4.99616
G1 X77.689 Y116.408 E5.02616
G1 X77.589 Y115.493 E5.05617
G1 X77.568 Y114.988 E5.07264
G1 X77.549 Y113.845 E5.1099
G1 X77.55 Y105.735 E5.37425
G1 X77.56 Y105.052 E5.39651
G1 X77.614 Y104.133 E5.42652
G1 X77.747 Y103.222 E5.45653
G1 X77.958 Y102.326 E5.48653
G1 X78.247 Y101.451 E5.51657
G1 X78.61 Y100.605 E5.54657
G1 X79.045 Y99.794 E5.57657
G1 X79.549 Y99.024 E5.60657
G1 X80.118 Y98.3 E5.63658
G1 X80.748 Y97.628 E5.66661
G1 X81.433 Y97.014 E5.69659
G0 F7500 X81.821 Y97.215
G1 F1500 X82.553 Y96.686 E5.72603
G1 X83.329 Y96.223 E5.75548
G1 X84.142 Y95.831 E5.7849
G1 X84.709 Y95.608 E5.80476
G1 X84.773 Y95.585 E5.80698
G1 X85.636 Y95.318 E5.83642
G1 X86.519 Y95.127 E5.86587
G1 X87.415 Y95.016 E5.8953
G1 X88.046 Y94.986 E5.91589
G1 X89.086 Y94.969 E5.94979
G1 X132.072 Y94.971 E7.35092
G1 X132.772 Y94.981 E7.37373
G1 X133.673 Y95.034 E7.40315
G1 X134.567 Y95.166 E7.43261
G1 X135.445 Y95.377 E7.46204
G1 X136.301 Y95.665 E7.49148
G1 X137.128 Y96.027 E7.52091
G1 X137.92 Y96.461 E7.55034
G1 X138.67 Y96.964 E7.57978
G1 X139.373 Y97.531 E7.60922
G1 X140.024 Y98.157 E7.63865
G1 X140.786 Y99.06 E7.67717
G1 X140.828 Y99.116 E7.67945
G1 X141.337 Y99.862 E7.70889
G1 X141.779 Y100.65 E7.73833
G1 X142.149 Y101.474 E7.76778
G1 X142.444 Y102.327 E7.7972
G1 X142.663 Y103.203 E7.82663
G1 X142.804 Y104.095 E7.85606
G1 X142.863 Y104.908 E7.88263
G1 X142.875 Y105.345 E7.89688
G1 X142.878 Y105.632 E7.90624
G1 X142.876 Y114.196 E8.18538
G1 X142.866 Y114.898 E8.20826
G1 X142.813 Y115.8 E8.23772
G1 X142.681 Y116.693 E8.26714
G1 X142.47 Y117.571 E8.29657
G1 X142.182 Y118.427 E8.32601
G1 X141.82 Y119.255 E8.35547
G1 X141.386 Y120.047 E8.3849
G1 X141.048 Y120.566 E8.40509
G1 X141.005 Y120.628 E8.40755
G1 X140.458 Y121.347 E8.437
G1 X139.85 Y122.014 E8.46641
G1 X139.185 Y122.625 E8.49585
G1 X138.468 Y123.175 E8.5253
G1 X137.706 Y123.659 E8.55473
G1 X136.904 Y124.074 E8.58416
G1 X136.068 Y124.416 E8.6136
G1 X135.205 Y124.683 E8.64305
G1 X134.322 Y124.873 E8.67249
G1 X133.426 Y124.983 E8.70191
G1 X132.799 Y125.014 E8.72238
G1 X131.923 Y125.029 E8.75093
G1 X88.927 Y125.031 E10.15238
G1 X88.092 Y125.02 E10.1796
G1 X87.19 Y124.967 E10.20905
G1 X86.297 Y124.834 E10.23848
G1 X85.333 Y124.598 E10.27083
G1 X85.259 Y124.576 E10.27335
G1 X84.406 Y124.281 E10.30277
G1 X83.582 Y123.911 E10.33221
G1 X82.794 Y123.47 E10.36164
G1 X82.048 Y122.961 E10.39108
G1 X81.35 Y122.387 E10.42054
G1 X80.706 Y121.755 E10.44995
G1 X80.12 Y121.068 E10.47938
G1 X79.597 Y120.331 E10.50884
G1 X79.141 Y119.552 E10.53826
G1 X78.756 Y118.735 E10.5677
G1 X78.445 Y117.887 E10.59714
G1 X78.21 Y117.015 E10.62657
G1 X78.053 Y116.126 E10.656
G1 X77.968 Y114.981 E10.69342
G1 X77.949 Y113.845 E10.73046
G1 X77.95 Y105.741 E10.99461
G1 X77.96 Y105.058 E11.01687
G1 X78.013 Y104.156 E11.04632
G1 X78.146 Y103.263 E11.07575
G1 X78.357 Y102.385 E11.10518
G1 X78.645 Y101.529 E11.13462
G1 X79.008 Y100.702 E11.16406
G1 X79.442 Y99.91 E11.1935
G1 X79.945 Y99.16 E11.22293
G1 X80.512 Y98.457 E11.25237
G1 X81.139 Y97.807 E11.28181
G1 X81.821 Y97.215 E11.31124
G1 F2700 E6.31124
G1 F300 Z0.6
;MESH:PLATempTower
G0 F7500 X89.149 Y113.831 Z0.6
;TYPE:WALL-INNER
G1 F300 Z0.2
G1 F2700 E11.31124
G1 F1500 X89.149 Y106.169 E11.56099
G1 X131.678 Y106.17 E12.94722
G1 X131.677 Y113.83 E13.19689
G1 X89.149 Y113.831 E14.58309
G0 F7500 X88.749 Y114.231
G1 F1500 X88.749 Y105.769 E14.85891
G1 X132.078 Y105.77 E16.27121
G1 X132.077 Y114.23 E16.54697
G1 X88.749 Y114.231 E17.95924
G0 F7500 X88.349 Y114.631
;TYPE:WALL-OUTER
G1 F1500 X88.349 Y105.369 E18.2551
G1 X132.478 Y105.37 E19.66471
G1 X132.477 Y114.63 E19.9605
G1 X88.349 Y114.631 E21.37009
G0 F7500 X88.349 Y114.231
G0 X88.79 Y114.19
G0 X89.259 Y113.441
G0 X89.539 Y113.441
;TYPE:SKIN
G1 F1500 X89.539 Y106.559 E21.5944
G1 X131.288 Y106.56 E22.95521
G1 X131.287 Y113.44 E23.17946
G1 X89.539 Y113.441 E24.54024
G1 F2700 E19.54024
G0 F7500 X89.259 Y113.441
G0 X89.331 Y106.351
G0 X131.044 Y106.28
G1 F2700 E24.54024
G0 F7500 X131.043 Y106.719
G1 F1500 X131.127 Y106.802 E24.54409
G0 F7500 X131.127 Y107.368
G1 F1500 X130.478 Y106.719 E24.574
G0 F7500 X129.912 Y106.719
G1 F1500 X131.127 Y107.934 E24.63001
G0 F7500 X131.127 Y108.499
G1 F1500 X129.346 Y106.719 E24.71208
G0 F7500 X128.781 Y106.719
G1 F1500 X131.127 Y109.065 E24.82022
G0 F7500 X131.127 Y109.631
G1 F1500 X128.215 Y106.719 E24.95446
G0 F7500 X127.649 Y106.719
G1 F1500 X131.126 Y110.196 E25.11473
G0 F7500 X131.126 Y110.761
G1 F1500 X127.084 Y106.719 E25.30105
G0 F7500 X126.518 Y106.719
G1 F1500 X131.126 Y111.327 E25.51347
G0 F7500 X131.126 Y111.893
G1 F1500 X125.952 Y106.719 E25.75197
G0 F7500 X125.387 Y106.719
G1 F1500 X131.126 Y112.458 E26.01651
G0 F7500 X131.126 Y113.024
G1 F1500 X124.821 Y106.719 E26.30715
G0 F7500 X124.255 Y106.719
G1 F1500 X130.816 Y113.279 E26.60956
G0 F7500 X130.25 Y113.279
G1 F1500 X123.689 Y106.719 E26.91198
G0 F7500 X123.124 Y106.719
G1 F1500 X129.684 Y113.279 E27.21437
G0 F7500 X129.119 Y113.279
G1 F1500 X122.558 Y106.719 E27.51678
G0 F7500 X121.992 Y106.719
G1 F1500 X128.553 Y113.279 E27.8192
G0 F7500 X127.987 Y113.279
G1 F1500 X121.427 Y106.719 E28.12159
G0 F7500 X120.861 Y106.719
G1 F1500 X127.422 Y113.279 E28.424
G0 F7500 X126.856 Y113.279
G1 F1500 X120.295 Y106.719 E28.72642
G0 F7500 X119.73 Y106.719
G1 F1500 X126.29 Y113.279 E29.02881
G0 F7500 X125.724 Y113.279
G1 F1500 X119.164 Y106.719 E29.3312
G0 F7500 X118.598 Y106.719
G1 F1500 X125.159 Y113.279 E29.63361
G0 F7500 X124.593 Y113.279
G1 F1500 X118.033 Y106.719 E29.936
G0 F7500 X117.467 Y106.719
G1 F1500 X124.027 Y113.279 E30.23839
G0 F7500 X123.462 Y113.279
G1 F1500 X116.901 Y106.719 E30.54081
G0 F7500 X116.336 Y106.719
G1 F1500 X122.896 Y113.279 E30.8432
G0 F7500 X122.33 Y113.279
G1 F1500 X115.77 Y106.719 E31.14559
G0 F7500 X115.204 Y106.719
G1 F1500 X121.765 Y113.279 E31.448
G0 F7500 X121.199 Y113.279
G1 F1500 X114.638 Y106.719 E31.75042
G0 F7500 X114.073 Y106.719
G1 F1500 X120.633 Y113.279 E32.05281
G0 F7500 X120.068 Y113.279
G1 F1500 X113.507 Y106.719 E32.35522
G0 F7500 X112.941 Y106.719
G1 F1500 X119.502 Y113.279 E32.65764
G0 F7500 X118.936 Y113.279
G1 F1500 X112.376 Y106.719 E32.96003
G0 F7500 X111.81 Y106.719
G1 F1500 X118.371 Y113.279 E33.26244
G0 F7500 X117.805 Y113.279
G1 F1500 X111.244 Y106.719 E33.56486
G0 F7500 X110.679 Y106.719
G1 F1500 X117.239 Y113.279 E33.86725
G0 F7500 X116.674 Y113.279
G1 F1500 X110.112 Y106.718 E34.16971
G0 F7500 X109.547 Y106.718
G1 F1500 X116.108 Y113.279 E34.47215
G0 F7500 X115.542 Y113.279
G1 F1500 X108.981 Y106.718 E34.77458
G0 F7500 X108.415 Y106.718
G1 F1500 X114.976 Y113.279 E35.07702
G0 F7500 X114.411 Y113.279
G1 F1500 X107.85 Y106.718 E35.37946
G0 F7500 X107.284 Y106.718
G1 F1500 X113.845 Y113.279 E35.68189
G0 F7500 X113.279 Y113.279
G1 F1500 X106.718 Y106.718 E35.98433
G0 F7500 X106.152 Y106.718
G1 F1500 X112.714 Y113.279 E36.28679
G0 F7500 X112.148 Y113.279
G1 F1500 X105.587 Y106.718 E36.58923
G0 F7500 X105.021 Y106.718
G1 F1500 X111.582 Y113.279 E36.89167
G0 F7500 X111.017 Y113.279
G1 F1500 X104.455 Y106.718 E37.19413
G0 F7500 X103.89 Y106.718
G1 F1500 X110.451 Y113.279 E37.49656
G0 F7500 X109.885 Y113.279
G1 F1500 X103.324 Y106.718 E37.799
G0 F7500 X102.758 Y106.718
G1 F1500 X109.32 Y113.279 E38.10146
G0 F7500 X108.754 Y113.279
G1 F1500 X102.193 Y106.718 E38.4039
G0 F7500 X101.627 Y106.718
G1 F1500 X108.188 Y113.279 E38.70633
G0 F7500 X107.623 Y113.279
G1 F1500 X101.061 Y106.718 E39.00879
G0 F7500 X100.496 Y106.718
G1 F1500 X107.057 Y113.279 E39.31123
G0 F7500 X106.491 Y113.279
G1 F1500 X99.93 Y106.718 E39.61367
G0 F7500 X99.364 Y106.718
G1 F1500 X105.926 Y113.279 E39.91613
G0 F7500 X105.36 Y113.279
G1 F1500 X98.799 Y106.718 E40.21857
G0 F7500 X98.233 Y106.718
G1 F1500 X104.794 Y113.279 E40.521
G0 F7500 X104.228 Y113.279
G1 F1500 X97.667 Y106.718 E40.82344
G0 F7500 X97.102 Y106.718
G1 F1500 X103.663 Y113.279 E41.12588
G0 F7500 X103.097 Y113.279
G1 F1500 X96.536 Y106.718 E41.42832
G0 F7500 X95.97 Y106.718
G1 F1500 X102.531 Y113.279 E41.73075
G0 F7500 X101.966 Y113.279
G1 F1500 X95.404 Y106.718 E42.03321
G0 F7500 X94.839 Y106.718
G1 F1500 X101.4 Y113.279 E42.33565
G0 F7500 X100.834 Y113.279
G1 F1500 X94.273 Y106.718 E42.63809
G0 F7500 X93.707 Y106.718
G1 F1500 X100.269 Y113.279 E42.94055
G0 F7500 X99.703 Y113.279
G1 F1500 X93.142 Y106.718 E43.24298
G0 F7500 X92.576 Y106.718
G1 F1500 X99.137 Y113.279 E43.54542
G0 F7500 X98.572 Y113.279
G1 F1500 X92.01 Y106.718 E43.84788
G0 F7500 X91.445 Y106.718
G1 F1500 X98.006 Y113.279 E44.15032
G0 F7500 X97.44 Y113.279
G1 F1500 X90.879 Y106.718 E44.45276
G0 F7500 X90.313 Y106.718
G1 F1500 X96.875 Y113.279 E44.75522
G0 F7500 X96.309 Y113.279
G1 F1500 X89.748 Y106.718 E45.05765
G0 F7500 X89.699 Y107.235
G1 F1500 X95.743 Y113.279 E45.33626
G0 F7500 X95.177 Y113.279
G1 F1500 X89.699 Y107.801 E45.58877
G0 F7500 X89.699 Y108.366
G1 F1500 X94.612 Y113.279 E45.81524
G0 F7500 X94.046 Y113.279
G1 F1500 X89.699 Y108.932 E46.01562
G0 F7500 X89.699 Y109.498
G1 F1500 X93.48 Y113.279 E46.18991
G0 F7500 X92.915 Y113.279
G1 F1500 X89.699 Y110.063 E46.33816
G0 F7500 X89.699 Y110.629
G1 F1500 X92.349 Y113.279 E46.46031
G0 F7500 X91.783 Y113.279
G1 F1500 X89.699 Y111.195 E46.55638
G0 F7500 X89.699 Y111.761
G1 F1500 X91.218 Y113.279 E46.62638
G0 F7500 X90.652 Y113.279
G1 F1500 X89.699 Y112.326 E46.67031
G0 F7500 X89.699 Y112.892
G1 F1500 X90.086 Y113.279 E46.68814
M104 S225
G0 F7500 X90.086 Y114.021
;MESH:NONMESH
G0 F300 X90.086 Y114.021 Z0.4
G0 F7500 X89.031 Y113.952
;TIME_ELAPSED:66.440507
;LAYER:1
M106 S85
;TYPE:WALL-INNER
;MESH:PLATempTower
G1 F3150 X89.031 Y106.048 E46.95103
G1 X131.8 Y106.048 E48.37354
G1 X131.8 Y113.952 E48.63642
G1 X89.031 Y113.952 E50.05893
G0 F11250 X88.631 Y114.352
G1 F3150 X88.631 Y105.648 E50.34842
G1 X132.2 Y105.648 E51.79753
G1 X132.2 Y114.352 E52.08703
G1 X88.631 Y114.352 E53.53614
G0 F11250 X88.231 Y114.749
;TYPE:WALL-OUTER
G1 F1950 X88.231 Y105.251 E53.84573
G1 X88.24 Y105.248 E53.84604
G1 X132.587 Y105.248 E55.29152
G1 X132.6 Y105.266 E55.29225
G1 X132.6 Y114.734 E55.60086
G1 X132.587 Y114.752 E55.60158
G1 X88.24 Y114.752 E57.04707
G1 X88.231 Y114.749 E57.04738
G0 F11250 X88.231 Y114.349
G0 X88.671 Y114.349
G0 X89.141 Y113.562
G0 X89.421 Y113.562
;TYPE:SKIN
G1 F2550 X89.421 Y106.438 E57.28432
G1 X131.41 Y106.438 E58.68088
G1 X131.41 Y113.562 E58.91783
G1 X89.421 Y113.562 E60.31439
G0 F11250 X89.141 Y113.562
G0 X89.141 Y106.711
G0 X89.581 Y106.711
G1 F2550 X89.695 Y106.597 E60.31975
G0 F11250 X90.261 Y106.597
G1 F2550 X89.581 Y107.277 E60.35173
G0 F11250 X89.581 Y107.842
G1 F2550 X90.827 Y106.597 E60.41032
G0 F11250 X91.392 Y106.597
G1 F2550 X89.581 Y108.408 E60.4955
G0 F11250 X89.581 Y108.974
G1 F2550 X91.958 Y106.597 E60.60731
G0 F11250 X92.524 Y106.597
G1 F2550 X89.581 Y109.54 E60.74574
G0 F11250 X89.581 Y110.105
G1 F2550 X93.089 Y106.597 E60.91074
G0 F11250 X93.655 Y106.597
G1 F2550 X89.581 Y110.671 E61.10237
G0 F11250 X89.581 Y111.237
G1 F2550 X94.221 Y106.597 E61.32062
G0 F11250 X94.786 Y106.597
G1 F2550 X89.581 Y111.802 E61.56545
G0 F11250 X89.581 Y112.368
G1 F2550 X95.352 Y106.597 E61.8369
G0 F11250 X95.918 Y106.597
G1 F2550 X89.581 Y112.934 E62.13497
G0 F11250 X89.679 Y113.401
G1 F2550 X96.484 Y106.597 E62.45504
G0 F11250 X97.049 Y106.597
G1 F2550 X90.245 Y113.401 E62.77508
G0 F11250 X90.81 Y113.401
G1 F2550 X97.615 Y106.597 E63.09514
G0 F11250 X98.181 Y106.597
G1 F2550 X91.376 Y113.401 E63.4152
G0 F11250 X91.942 Y113.401
G1 F2550 X98.746 Y106.597 E63.73524
G0 F11250 X99.312 Y106.597
G1 F2550 X92.507 Y113.401 E64.0553
G0 F11250 X93.073 Y113.401
G1 F2550 X99.878 Y106.597 E64.37537
G0 F11250 X100.443 Y106.597
G1 F2550 X93.639 Y113.401 E64.69541
G0 F11250 X94.205 Y113.401
G1 F2550 X101.009 Y106.597 E65.01545
G0 F11250 X101.575 Y106.597
G1 F2550 X94.77 Y113.401 E65.33551
G0 F11250 X95.336 Y113.401
G1 F2550 X102.14 Y106.597 E65.65555
G0 F11250 X102.706 Y106.597
G1 F2550 X95.902 Y113.401 E65.97559
G0 F11250 X96.467 Y113.401
G1 F2550 X103.272 Y106.597 E66.29565
G0 F11250 X103.837 Y106.597
G1 F2550 X97.033 Y113.401 E66.61569
G0 F11250 X97.599 Y113.401
G1 F2550 X104.403 Y106.597 E66.93573
G0 F11250 X104.969 Y106.597
G1 F2550 X98.164 Y113.401 E67.25579
G0 F11250 X98.73 Y113.401
G1 F2550 X105.534 Y106.597 E67.57583
G0 F11250 X106.1 Y106.597
G1 F2550 X99.296 Y113.401 E67.89587
G0 F11250 X99.861 Y113.401
G1 F2550 X106.666 Y106.597 E68.21593
G0 F11250 X107.232 Y106.597
G1 F2550 X100.427 Y113.401 E68.536
G0 F11250 X100.993 Y113.401
G1 F2550 X107.797 Y106.597 E68.85604
G0 F11250 X108.363 Y106.597
G1 F2550 X101.558 Y113.401 E69.1761
G0 F11250 X102.124 Y113.401
G1 F2550 X108.929 Y106.597 E69.49616
G0 F11250 X109.494 Y106.597
G1 F2550 X102.69 Y113.401 E69.8162
G0 F11250 X103.255 Y113.401
G1 F2550 X110.06 Y106.597 E70.13626
G0 F11250 X110.626 Y106.597
G1 F2550 X103.821 Y113.401 E70.45633
G0 F11250 X104.387 Y113.401
G1 F2550 X111.191 Y106.597 E70.77637
G0 F11250 X111.757 Y106.597
G1 F2550 X104.953 Y113.401 E71.0964
G0 F11250 X105.518 Y113.401
G1 F2550 X112.323 Y106.597 E71.41647
G0 F11250 X112.888 Y106.597
G1 F2550 X106.084 Y113.401 E71.73651
G0 F11250 X106.65 Y113.401
G1 F2550 X113.454 Y106.597 E72.05655
G0 F11250 X114.02 Y106.597
G1 F2550 X107.215 Y113.401 E72.37661
G0 F11250 X107.781 Y113.401
G1 F2550 X114.585 Y106.597 E72.69665
G0 F11250 X115.151 Y106.597
G1 F2550 X108.347 Y113.401 E73.01669
G0 F11250 X108.912 Y113.401
G1 F2550 X115.717 Y106.597 E73.33675
G0 F11250 X116.283 Y106.597
